X: 22354
T: Labyrinth
R: jig
M: 6/8
K: Aminor
|:A2d dcd|edd dcA|cAA AGE|GED C3|
A2d dcd|ede geg|ac'a gec|edc d3:|
|:agc c'2g|fag fed|cBc edc|ADE F3|
agc c'ag|fag fed|fed edc|Ad^c d3:|

